images/police.svg

<?xml version="1.0" encoding="UTF-8" standalone="no"?>
<!-- Created with Inkscape (http://www.inkscape.org/) -->

<svg xmlns:dc="http://purl.org/dc/elements/1.1/" xmlns:cc="http://creativecommons.org/ns#" xmlns:rdf="http://www.w3.org/1999/02/22-rdf-syntax-ns#" xmlns:svg="http://www.w3.org/2000/svg" xmlns="http://www.w3.org/2000/svg" xmlns:sodipodi="http://sodipodi.sourceforge.net/DTD/sodipodi-0.dtd" xmlns:inkscape="http://www.inkscape.org/namespaces/inkscape" version="1.1" width="14" height="14" viewBox="0 0 14 14" id="svg865" sodipodi:docname="police.svg" inkscape:version="0.92.3 (2405546, 2018-03-11)">
  <metadata id="metadata871">
    <rdf:RDF>
      <cc:Work rdf:about="">
        <dc:format>image/svg+xml</dc:format>
        <dc:type rdf:resource="http://purl.org/dc/dcmitype/StillImage" />
        <dc:title></dc:title>
      </cc:Work>
    </rdf:RDF>
  </metadata>
  <defs id="defs869" />
  <sodipodi:namedview pagecolor="#ffffff" bordercolor="#666666" borderopacity="1" objecttolerance="10" gridtolerance="10" guidetolerance="10" inkscape:pageopacity="0" inkscape:pageshadow="2" inkscape:window-width="1881" inkscape:window-height="1051" id="namedview867" showgrid="false" inkscape:pagecheckerboard="true" inkscape:zoom="30.642857" inkscape:cx="9.9855195" inkscape:cy="6.8504014" inkscape:window-x="0" inkscape:window-y="0" inkscape:window-maximized="1" inkscape:current-layer="svg865" />
  <path id="outline" d="M 5,0 L 4,1 V 2 H 10 V 1 L 9,0 Z M 4,3 C 3.9667,3.168726 4,3.3395259 4,3.5185186 C 4,4.9503556 5.61931,6 7,6 C 8.38069,6 10,4.9503556 10,3.5185186 C 10,3.3395259 10,3 10,3 Z M 4,7 C 2.581094,7 2.01415,8.876578 2,10 V 14 H 3.53125 L 9,7 Z M 10.5,7 L 5.03125,14 H 12 V 10 C 12,8.876474 11.727158,7 10.5,7 Z" style="opacity:0.5;fill:none;stroke:#ffffff;stroke-width:3;stroke-linecap:round;stroke-linejoin:round;stroke-miterlimit:4;stroke-dasharray:none;stroke-opacity:1" inkscape:connector-curvature="0" />
  <path d="M 5,0 4,1 4,2 10,2 10,1 9,0 z M 4,3 C 3.9667,3.168726 4,3.3395259 4,3.5185186 4,4.9503556 5.61931,6 7,6 8.38069,6 10,4.9503556 10,3.5185186 10,3.3395259 10,3 10,3 z M 4,7 C 2.581094,7 2.01415,8.876578 2,10 L 2,14 3.53125,14 9,7 z M 10.5,7 5.03125,14 12,14 12,10 C 12,8.876474 11.727158,7 10.5,7 z" id="police" />
</svg>

<svg xmlns="http://www.w3.org/2000/svg" width="14" height="14">
    <path d="M5 0L4 1v1h6V1L9 0zM4 3c-.033.169 0 .34 0 .519C4 4.95 5.62 6 7 6s3-1.05 3-2.481V3zm0 4c-1.419 0-1.986 1.877-2 3v4h1.531L9 7zm6.5 0l-5.469 7H12v-4c0-1.124-.273-3-1.5-3z" opacity=".5" fill="none" stroke="#fff" stroke-width="3" stroke-linecap="round" stroke-linejoin="round"/>
    <path d="M5 0L4 1v1h6V1L9 0zM4 3c-.033.169 0 .34 0 .519C4 4.95 5.62 6 7 6s3-1.05 3-2.481V3zm0 4c-1.419 0-1.986 1.877-2 3v4h1.531L9 7zm6.5 0l-5.469 7H12v-4c0-1.124-.273-3-1.5-3z"/>
</svg>
